static/fa/svgs/solid/person-burst.svg

<svg xmlns="http://www.w3.org/2000/svg" viewBox="0 0 640 512"><!--! Font Awesome Free 6.1.1 by @fontawesome - https://fontawesome.com License - https://fontawesome.com/license/free (Icons: CC BY 4.0, Fonts: SIL OFL 1.1, Code: MIT License) Copyright 2022 Fonticons, Inc.--><path d="M431.1 48c0-26.51 22.4-48 48-48 27.4 0 48 21.49 48 48s-20.6 48-48 48c-25.6 0-48-21.49-48-48zm8 464c-16.8 0-32-14.3-32-32V256.9l-27.7 47.6c-9.1 15.1-28.7 20-43.9 10.9-15.1-9.1-20-28.7-10.9-43.9l58.2-96.9c17.4-28.9 48.6-46.6 82.3-46.6h29.8c33.7 0 64.9 17.7 82.3 46.6l58.2 96.9c9.1 15.2 4.2 34.8-10.9 43.9-15.2 9.1-34.8 4.2-43.9-10.9l-29.5-47.6V480c0 17.7-13.4 32-32 32-16.8 0-32-14.3-32-32V352h-16v128c0 17.7-13.4 32-32 32zM220.3 92.05l76.1-23.12c6.3-1.9 13.1.21 17.2 5.34 4.1 5.12 4.6 12.22.5 17.91l-38.6 69.12 55.2 38-24.4 40.5-50.5 7.8 5.6 79.4c.4 6.6-3.1 12.7-9 15.6-5.9 2.8-13 1.8-17.8-2.7l-59.5-53.8-57.7 53.8c-4.8 4.5-11.9 5.5-17.77 2.7-5.9-2.9-9.48-9-9.01-15.6l5.59-79.4-78.66-12.2c-6.47-1-11.682-5.8-13.14-12.2-1.459-6.4 1.128-13.1 6.53-16.8l65.56-45.1-39.49-69.12a16.008 16.008 0 0 1 1.38-17.91 16.007 16.007 0 0 1 17.16-5.34l76.15 23.12 29.4-73.96c2.5-6.99 8.3-10.99 14-10.99 7.5 0 13.3 4 15.8 10.99l29.4 73.96z"/></svg>

<svg xmlns="http://www.w3.org/2000/svg" viewBox="0 0 640 512"><!--! Font Awesome Free 6.1.1 by @fontawesome - https://fontawesome.com License - https://fontawesome.com/license/free (Icons: CC BY 4.0, Fonts: SIL OFL 1.1, Code: MIT License) Copyright 2022 Fonticons, Inc. --><path d="M431.1 48C431.1 21.49 453.5 0 479.1 0C506.5 0 527.1 21.49 527.1 48C527.1 74.51 506.5 96 479.1 96C453.5 96 431.1 74.51 431.1 48zM439.1 512C422.3 512 407.1 497.7 407.1 480V256.9L379.4 304.5C370.3 319.6 350.7 324.5 335.5 315.4C320.4 306.3 315.5 286.7 324.6 271.5L382.8 174.6C400.2 145.7 431.4 128 465.1 128H494.9C528.6 128 559.8 145.7 577.2 174.6L635.4 271.5C644.5 286.7 639.6 306.3 624.5 315.4C609.3 324.5 589.7 319.6 580.6 304.5L551.1 256.9V480C551.1 497.7 537.7 512 519.1 512C502.3 512 487.1 497.7 487.1 480V352H471.1V480C471.1 497.7 457.7 512 439.1 512L439.1 512zM220.3 92.05L296.4 68.93C302.7 67.03 309.5 69.14 313.6 74.27C317.7 79.39 318.2 86.49 314.1 92.18L275.5 161.3L330.7 199.3L306.3 239.8L255.8 247.6L261.4 327C261.8 333.6 258.3 339.7 252.4 342.6C246.5 345.4 239.4 344.4 234.6 339.9L175.1 286.1L117.4 339.9C112.6 344.4 105.5 345.4 99.63 342.6C93.73 339.7 90.15 333.6 90.62 327L96.21 247.6L17.55 235.4C11.08 234.4 5.868 229.6 4.41 223.2C2.951 216.8 5.538 210.1 10.94 206.4L76.5 161.3L37.01 92.18C33.76 86.49 34.31 79.39 38.39 74.27C42.48 69.14 49.28 67.03 55.55 68.93L131.7 92.05L161.1 18.09C163.6 11.1 169.4 7.1 175.1 7.1C182.6 7.1 188.4 11.1 190.9 18.09L220.3 92.05z"/></svg>
